X:97
T:Mooncoin
Z: id:dc-jig-79
M:6/8
L:1/8
K:A Mixolydian
cBA AEA|AEA Bcd|cBA Ace|dBG Bcd|!
cBA AEA|AEA Bcd|Ace gfe|dBG Bcd:|!
cde efg|faf ged|cde efg|faA Bcd|!
cde efg|afd bge|afd gec|dBG Bcd:|!
cBA Aaf|ecA Bcd|cBA gfe|dBG Bcd|!
cBA Aaa|Agg|Aff|Aee efg|dBG Bcd:|!

